X:1

T:The Battle of Sherrifmuir

T:Here's a Health To Them Far Awa'

D:Billy Jackson & John Martin: The Braes of Lochiel

Z:Nigel Gatherer

M:6/8

L:1/8

K:A

E|A>GF FEF|A3 A2B|c>BA dcd|e3 e2a|c'ba agf|e>dc def|

edc BAB|A3 A2::c|edc BAB|A3 A2c|edc def|e3 e2a|

c'ba agf|e>dc def|edc BAB|A3 A2::e|a>ec a>ec|e3 efg|

agf edc|B3 B2a|c'ba agf|e>dc def|edc BAB|A3 A2:|

                                               

BATTLE OF STIRLING, THE. Scottish, March (4/4 time). B Flat Major. Standard tuning. AA'. The battle of Stirling Bridge was fought in 1297 by the Scots hero William Wallace, aided by Andrew De Moray, against the English invaders under Cressingham. The narrow bridge crossed the Forth of Firth and Cressingham foolishly allowed his army to be strung out across its length, which had been weakened by the Scots, and Wallace and De Moray slaughtered the vanguard and sent the rest reeling in disarray, killing Cressingham in the process. Wallace lost a subsequent more conventional battle, Falkirk, but then engaged in a guerilla campaign which eventually led to Scottish independence, though he did not live to see it. Neil (The Scots Fiddle), 1991; No. 22, pg. 31.

                       

BATTLE OF THE BOYNE (WATER). AKA and see "The Boyne Water [1]."

                       

BATTLE OF THE NILE, THE.  English, Air or march (whole time). D Major. Standard tuning. AAB. The melody, perhaps a song air, commemorates Admiral Nelson’s 1798 victory over the French fleet under Admiral François-Paul Brueys, anchored in one of the mouths of the Nile river. The battle was fought largely at night, unusual for the time, and resulted in an overwhelming victory for the British. Nelson was made Baron of the Nile as a consequence. Source for notated version: the 1823-26 music mss of papermaker and musician Joshua Gibbons (1778-1871, of Tealby, near Market Rasen, Lincolnshire Wolds) [Sumner]. Sumner (Lincolnshire Collections, vol. 1: The Joshua Gibbons Manuscript), 1997; pg. 84.

 

BATTLE OF THE ROE, THE. Irish, Air (3/4 time). F Mixolydian: F Minor: C Major. Standard tuning. One part. “By Gillan.” Stanford/Petrie (Complete Collection), 1905; Nos. 425-428, pgs. 107-108.

